public/cloud-icons/azure/compute/reservation.svg

<?xml version="1.0" encoding="UTF-8" standalone="no"?>
<!-- Generated by Microsoft Visio, SVG Export Reservation.svg Page-1 -->

<svg
   xmlns:dc="http://purl.org/dc/elements/1.1/"
   xmlns:cc="http://creativecommons.org/ns#"
   xmlns:rdf="http://www.w3.org/1999/02/22-rdf-syntax-ns#"
   xmlns:svg="http://www.w3.org/2000/svg"
   xmlns="http://www.w3.org/2000/svg"
   xmlns:sodipodi="http://sodipodi.sourceforge.net/DTD/sodipodi-0.dtd"
   xmlns:inkscape="http://www.inkscape.org/namespaces/inkscape"
   width="56.705376"
   height="56.693001"
   viewBox="0 0 56.705376 56.693001"
   xml:space="preserve"
   class="st6"
   version="1.1"
   id="svg92"
   sodipodi:docname="Reservation.svg"
   style="font-size:12px;overflow:visible;color-interpolation-filters:sRGB;fill:none;fill-rule:evenodd;stroke-linecap:square;stroke-miterlimit:3"
   inkscape:version="0.92.5 (2060ec1f9f, 2020-04-08)"><metadata
   id="metadata96"><rdf:RDF><cc:Work
       rdf:about=""><dc:format>image/svg+xml</dc:format><dc:type
         rdf:resource="http://purl.org/dc/dcmitype/StillImage" /></cc:Work></rdf:RDF></metadata><sodipodi:namedview
   pagecolor="#ffffff"
   bordercolor="#666666"
   borderopacity="1"
   objecttolerance="10"
   gridtolerance="10"
   guidetolerance="10"
   inkscape:pageopacity="0"
   inkscape:pageshadow="2"
   inkscape:window-width="640"
   inkscape:window-height="480"
   id="namedview94"
   showgrid="false"
   inkscape:zoom="1.8924055"
   inkscape:cx="28.355"
   inkscape:cy="28.338498"
   inkscape:window-x="0"
   inkscape:window-y="0"
   inkscape:window-maximized="0"
   inkscape:current-layer="svg92" />
	<style
   type="text/css"
   id="style2">
	<![CDATA[
		.st1 {fill:#b0b0b0;stroke:none;stroke-linecap:butt;stroke-width:34}
		.st2 {fill:#ffffff;stroke:none;stroke-linecap:butt;stroke-width:34}
		.st3 {fill:#7a7a7a;stroke:none;stroke-linecap:butt;stroke-width:34}
		.st4 {fill:url(#grad0-24);stroke:none;stroke-linecap:butt;stroke-width:34}
		.st5 {fill:url(#grad3-32);stroke:none;stroke-linecap:butt;stroke-width:34}
		.st6 {fill:none;fill-rule:evenodd;font-size:12px;overflow:visible;stroke-linecap:square;stroke-miterlimit:3}
	]]>
	</style>

	<defs
   id="Patterns_And_Gradients">
		<linearGradient
   id="grad0-24"
   x1="-5.4900727"
   y1="70.329997"
   x2="51.136127"
   y2="70.329997"
   gradientUnits="userSpaceOnUse">
			<stop
   offset="0"
   stop-color="#7956ba"
   stop-opacity="1"
   id="stop4" />
			<stop
   offset="0.69"
   stop-color="#724eb4"
   stop-opacity="1"
   id="stop6" />
			<stop
   offset="0.87"
   stop-color="#6f4bb2"
   stop-opacity="1"
   id="stop8" />
		</linearGradient>
		<radialGradient
   id="grad3-32"
   cx="4.0018501"
   cy="120.707"
   r="5.8427013"
   fx="4.0018501"
   fy="120.707"
   gradientUnits="userSpaceOnUse">
			<stop
   offset="0"
   stop-color="#7f7f7f"
   stop-opacity="1"
   id="stop11" />
			<stop
   offset="1"
   stop-color="#5e5e5e"
   stop-opacity="1"
   id="stop13" />
		</radialGradient>
	</defs>
	<g
   id="g90"
   transform="translate(-34,-33.999997)">
		<title
   id="title17">Page-1</title>
		<g
   id="group11847-1"
   transform="translate(34,-34.0157)">
			<title
   id="title19">Reservation.11847</title>
			<g
   id="group11848-2">
				<title
   id="title21">Sheet.11848</title>
				<g
   id="shape11849-3">
					<title
   id="title23">Sheet.11849</title>
					<circle
   cx="28.3465"
   cy="96.362198"
   class="st1"
   id="ellipse25"
   r="28.3465"
   style="fill:#b0b0b0;stroke:none;stroke-width:34;stroke-linecap:butt" />
				</g>
				<g
   id="shape11850-5"
   transform="translate(4.20195,-4.36869)">
					<title
   id="title28">Sheet.11850</title>
					<circle
   cx="24.077801"
   cy="100.631"
   class="st2"
   id="ellipse30"
   r="24.077801"
   style="fill:#ffffff;stroke:none;stroke-width:34;stroke-linecap:butt" />
				</g>
				<g
   id="shape11851-7"
   transform="rotate(-45,-27.82876,55.7024)">
					<title
   id="title33">Sheet.11851</title>
					<rect
   x="0"
   y="123.341"
   width="4.2352901"
   height="1.3673"
   class="st3"
   id="rect35"
   style="fill:#7a7a7a;stroke:none;stroke-width:34;stroke-linecap:butt" />
				</g>
				<g
   id="shape11852-9"
   transform="translate(44.9541,-27.6795)">
					<title
   id="title38">Sheet.11852</title>
					<rect
   x="0"
   y="123.341"
   width="4.2352901"
   height="1.3673"
   class="st3"
   id="rect40"
   style="fill:#7a7a7a;stroke:none;stroke-width:34;stroke-linecap:butt" />
				</g>
				<g
   id="shape11853-11"
   transform="rotate(-45,5.4037038,66.902213)">
					<title
   id="title43">Sheet.11853</title>
					<rect
   x="0"
   y="120.473"
   width="1.3673"
   height="4.2352901"
   class="st3"
   id="rect45"
   style="fill:#7a7a7a;stroke:none;stroke-width:34;stroke-linecap:butt" />
				</g>
				<g
   id="shape11854-13"
   transform="translate(27.5127,-7.40343)">
					<title
   id="title48">Sheet.11854</title>
					<rect
   x="0"
   y="120.473"
   width="1.3673"
   height="4.2352901"
   class="st3"
   id="rect50"
   style="fill:#7a7a7a;stroke:none;stroke-width:34;stroke-linecap:butt" />
				</g>
				<g
   id="shape11855-15"
   transform="rotate(-45,-40.525411,85.902135)">
					<title
   id="title53">Sheet.11855</title>
					<rect
   x="0"
   y="120.473"
   width="1.3673"
   height="4.2352901"
   class="st3"
   id="rect55"
   style="fill:#7a7a7a;stroke:none;stroke-width:34;stroke-linecap:butt" />
				</g>
				<g
   id="shape11856-17"
   transform="rotate(-45,-8.788732,101.64821)">
					<title
   id="title58">Sheet.11856</title>
					<rect
   x="0"
   y="123.341"
   width="4.2352901"
   height="1.3673"
   class="st3"
   id="rect60"
   style="fill:#7a7a7a;stroke:none;stroke-width:34;stroke-linecap:butt" />
				</g>
				<g
   id="shape11857-19"
   transform="translate(6.9032,-27.6795)">
					<title
   id="title63">Sheet.11857</title>
					<rect
   x="0"
   y="123.341"
   width="4.2352901"
   height="1.3673"
   class="st3"
   id="rect65"
   style="fill:#7a7a7a;stroke:none;stroke-width:34;stroke-linecap:butt" />
				</g>
				<g
   id="shape11858-21"
   transform="translate(5.56925,-2.30969)">
					<title
   id="title68">Sheet.11858</title>
					<path
   d="m 22.81,70.33 a 2.03428,2.03428 -180 0 0 -2.03,2.06 2.10097,2.10097 -180 0 0 2.06,2.1 24.2112,24.2112 0 1 1 -17.87,7.84 L 6.67,84.8 11.41,74.26 0,75.59 2.5,78.93 a 28.3131,28.3131 -180 1 0 20.31,-8.6 z"
   class="st4"
   id="path70"
   inkscape:connector-curvature="0"
   style="fill:url(#grad0-24);stroke:none;stroke-width:34;stroke-linecap:butt" />
				</g>
				<g
   id="shape11859-25"
   transform="translate(26.5456,-27.446)">
					<title
   id="title73">Sheet.11859</title>
					<path
   d="m 0,122.97 a 1.73418,1.73418 -180 0 0 1.73,1.74 H 2.07 A 1.73418,1.73418 -180 0 0 3.8,122.97 V 104.73 A 1.73418,1.73418 -180 0 0 2.07,103 H 1.73 A 1.73418,1.73418 -180 0 0 0,104.73 Z"
   class="st3"
   id="path75"
   inkscape:connector-curvature="0"
   style="fill:#7a7a7a;stroke:none;stroke-width:34;stroke-linecap:butt" />
				</g>
				<g
   id="shape11860-27"
   transform="rotate(135,21.057759,116.38293)">
					<title
   id="title78">Sheet.11860</title>
					<path
   d="m 0,122.97 a 1.73418,1.73418 -180 0 0 1.73,1.74 H 2.07 A 1.73418,1.73418 -180 0 0 3.8,122.97 V 112.84 A 1.73418,1.73418 -180 0 0 2.07,111.1 H 1.73 A 1.73418,1.73418 -180 0 0 0,112.84 Z"
   class="st3"
   id="path80"
   inkscape:connector-curvature="0"
   style="fill:#7a7a7a;stroke:none;stroke-width:34;stroke-linecap:butt" />
				</g>
				<g
   id="shape11861-29"
   transform="translate(24.2779,-24.3446)">
					<title
   id="title83">Sheet.11861</title>
					<circle
   cx="4.0018501"
   cy="120.707"
   class="st5"
   id="ellipse85"
   r="4.0018501"
   style="fill:url(#grad3-32);stroke:none;stroke-width:34;stroke-linecap:butt" />
				</g>
			</g>
		</g>
	</g>
</svg>

<svg xmlns="http://www.w3.org/2000/svg" xml:space="preserve" width="56.705" height="56.693" style="font-size:12px;overflow:visible;color-interpolation-filters:sRGB;fill-rule:evenodd;stroke-linecap:square;stroke-miterlimit:3" viewBox="0 0 56.705 56.693"><defs><radialGradient id="b" cx="4.002" cy="120.707" r="5.843" fx="4.002" fy="120.707" gradientUnits="userSpaceOnUse"><stop offset="0" stop-color="#7f7f7f"/><stop offset="1" stop-color="#5e5e5e"/></radialGradient><linearGradient id="a" x1="-5.49" x2="51.136" y1="70.33" y2="70.33" gradientUnits="userSpaceOnUse"><stop offset="0" stop-color="#7956ba"/><stop offset=".69" stop-color="#724eb4"/><stop offset=".87" stop-color="#6f4bb2"/></linearGradient></defs><g transform="translate(-34 -34)"><title>Page-1</title><g transform="translate(34 -34.016)"><title>Reservation.11847</title><title>Sheet.11848</title><title>Sheet.11849</title><circle cx="28.346" cy="96.362" r="28.346" style="fill:#b0b0b0;stroke:none;stroke-width:34;stroke-linecap:butt"/><g transform="translate(4.202 -4.369)"><title>Sheet.11850</title><circle cx="24.078" cy="100.631" r="24.078" style="fill:#fff;stroke:none;stroke-width:34;stroke-linecap:butt"/></g><g transform="rotate(-45 -27.829 55.702)"><title>Sheet.11851</title><path d="M0 123.341h4.235v1.367H0z" style="fill:#7a7a7a;stroke:none;stroke-width:34;stroke-linecap:butt"/></g><g transform="translate(44.954 -27.68)"><title>Sheet.11852</title><path d="M0 123.341h4.235v1.367H0z" style="fill:#7a7a7a;stroke:none;stroke-width:34;stroke-linecap:butt"/></g><g transform="rotate(-45 5.404 66.902)"><title>Sheet.11853</title><path d="M0 120.473h1.367v4.235H0z" style="fill:#7a7a7a;stroke:none;stroke-width:34;stroke-linecap:butt"/></g><g transform="translate(27.513 -7.403)"><title>Sheet.11854</title><path d="M0 120.473h1.367v4.235H0z" style="fill:#7a7a7a;stroke:none;stroke-width:34;stroke-linecap:butt"/></g><g transform="rotate(-45 -40.525 85.902)"><title>Sheet.11855</title><path d="M0 120.473h1.367v4.235H0z" style="fill:#7a7a7a;stroke:none;stroke-width:34;stroke-linecap:butt"/></g><g transform="rotate(-45 -8.789 101.648)"><title>Sheet.11856</title><path d="M0 123.341h4.235v1.367H0z" style="fill:#7a7a7a;stroke:none;stroke-width:34;stroke-linecap:butt"/></g><g transform="translate(6.903 -27.68)"><title>Sheet.11857</title><path d="M0 123.341h4.235v1.367H0z" style="fill:#7a7a7a;stroke:none;stroke-width:34;stroke-linecap:butt"/></g><g transform="translate(5.57 -2.31)"><title>Sheet.11858</title><path d="M22.81 70.33a2.034 2.034-180 0 0-2.03 2.06 2.1 2.1-180 0 0 2.06 2.1 24.211 24.211 0 1 1-17.87 7.84l1.7 2.47 4.74-10.54L0 75.59l2.5 3.34a28.313 28.313-180 1 0 20.31-8.6" style="fill:url(#a);stroke:none;stroke-width:34;stroke-linecap:butt"/></g><g transform="translate(26.546 -27.446)"><title>Sheet.11859</title><path d="M0 122.97a1.734 1.734-180 0 0 1.73 1.74h.34a1.734 1.734-180 0 0 1.73-1.74v-18.24A1.734 1.734-180 0 0 2.07 103h-.34A1.734 1.734-180 0 0 0 104.73Z" style="fill:#7a7a7a;stroke:none;stroke-width:34;stroke-linecap:butt"/></g><g transform="rotate(135 21.058 116.383)"><title>Sheet.11860</title><path d="M0 122.97a1.734 1.734-180 0 0 1.73 1.74h.34a1.734 1.734-180 0 0 1.73-1.74v-10.13a1.734 1.734-180 0 0-1.73-1.74h-.34A1.734 1.734-180 0 0 0 112.84Z" style="fill:#7a7a7a;stroke:none;stroke-width:34;stroke-linecap:butt"/></g><g transform="translate(24.278 -24.345)"><title>Sheet.11861</title><circle cx="4.002" cy="120.707" r="4.002" style="fill:url(#b);stroke:none;stroke-width:34;stroke-linecap:butt"/></g></g></g></svg>
